X:21165 
T:PRETTY BROWN GIRL, The 
B:DMI.0151
Z:Nordberg/Black
R:jig
%Q:1/4=160
M:6/8
L:1/8
K:G
A|B2d cAA|BGG cAG|B2d cAA|BGG G2A|
B2d cAA|Bde dBG|B2d cBA|BGG G2:|
f|gee fdd|ece dBG|gfe fdf|ece d2f|
gfe fdf|ege dBG|B2d cBA|BGG G2:|

%%%

